dist/svg/static/code-small.svg

<svg xmlns="http://www.w3.org/2000/svg" width="24" height="24" viewBox="0 0 24 24"><g fill="none" stroke="currentColor" stroke-miterlimit="10"><path d="M19.5 19.5h3v3h-3zM13.5 19.5h3v3h-3zM19.5 13.5h3v3h-3zM13.5 13.5h3v3h-3z"/><g><path d="M3.5 15.5h5v5h-5z"/><path d="M1.5 13.5h9v9h-9z"/></g><g><path d="M15.5 3.5h5v5h-5z"/><path d="M13.5 1.5h9v9h-9z"/></g><g><path d="M3.5 3.5h5v5h-5z"/><path d="M1.5 1.5h9v9h-9z"/></g></g></svg>

<?xml version="1.0" encoding="UTF-8" standalone="no"?>
<svg width="24px" height="24px" viewBox="0 0 24 24" version="1.1" xmlns="http://www.w3.org/2000/svg" xmlns:xlink="http://www.w3.org/1999/xlink">
    <!-- Generator: sketchtool 46.2 (44496) - http://www.bohemiancoding.com/sketch -->
    <title>code-small</title>
    <desc>Created with sketchtool.</desc>
    <defs></defs>
    <g id="icons-published" stroke="none" stroke-width="1" fill="none" fill-rule="evenodd">
        <g id="briefing" transform="translate(-68.000000, -410.000000)"></g>
        <g id="code-small" stroke="#000000">
            <path d="M19.5,19.5 L22.5,19.5 L22.5,22.5 L19.5,22.5 L19.5,19.5 Z M13.5,19.5 L16.5,19.5 L16.5,22.5 L13.5,22.5 L13.5,19.5 Z M19.5,13.5 L22.5,13.5 L22.5,16.5 L19.5,16.5 L19.5,13.5 Z M13.5,13.5 L16.5,13.5 L16.5,16.5 L13.5,16.5 L13.5,13.5 Z" id="Shape"></path>
            <polygon id="Shape" points="3.5 15.5 8.5 15.5 8.5 20.5 3.5 20.5"></polygon>
            <polygon id="Shape" points="1.5 13.5 10.5 13.5 10.5 22.5 1.5 22.5"></polygon>
            <polygon id="Shape" points="15.5 3.5 20.5 3.5 20.5 8.5 15.5 8.5"></polygon>
            <polygon id="Shape" points="13.5 1.5 22.5 1.5 22.5 10.5 13.5 10.5"></polygon>
            <polygon id="Shape" points="3.5 3.5 8.5 3.5 8.5 8.5 3.5 8.5"></polygon>
            <polygon id="Shape" points="1.5 1.5 10.5 1.5 10.5 10.5 1.5 10.5"></polygon>
        </g>
    </g>
</svg>
